round/svg/surround_sound.svg

<svg xmlns="http://www.w3.org/2000/svg" width="24" height="24"><path d="M20 4H4c-1.1 0-2 .9-2 2v12c0 1.1.9 2 2 2h16c1.1 0 2-.9 2-2V6c0-1.1-.9-2-2-2zM7.11 16.89c-.43.43-1.14.39-1.51-.09A7.938 7.938 0 0 1 4 12c0-1.69.53-3.38 1.59-4.8.37-.48 1.08-.53 1.51-.1.35.35.39.9.1 1.29a6.02 6.02 0 0 0 0 7.21c.3.39.26.94-.09 1.29zM12 16c-2.21 0-4-1.79-4-4s1.79-4 4-4 4 1.79 4 4-1.79 4-4 4zm4.9.9a.978.978 0 0 1-.09-1.29A6.076 6.076 0 0 0 18 12c0-1.27-.4-2.53-1.2-3.6-.3-.39-.26-.95.09-1.3.43-.43 1.14-.39 1.51.09 1.07 1.41 1.6 3.1 1.6 4.8 0 1.69-.53 3.38-1.59 4.8-.37.49-1.08.54-1.51.11zM12 10c-1.1 0-2 .9-2 2s.9 2 2 2 2-.9 2-2-.9-2-2-2z" fill="currentColor"/></svg>

<?xml version="1.0" encoding="utf-8"?>
<!-- Generator: Adobe Illustrator 19.1.0, SVG Export Plug-In . SVG Version: 6.00 Build 0)  -->
<svg version="1.1" xmlns="http://www.w3.org/2000/svg" xmlns:xlink="http://www.w3.org/1999/xlink" x="0px" y="0px" width="24px"
	 height="24px" viewBox="0 0 24 24" enable-background="new 0 0 24 24" xml:space="preserve">
<g id="Bounding_Boxes" display="none">
	<rect display="inline" fill="none" width="24" height="24"/>
	<rect display="inline" fill="none" width="24" height="24"/>
	<rect display="inline" fill="none" width="24" height="24"/>
</g>
<g id="Rounded" fill="currentColor">
	<path d="M20,4H4C2.9,4,2,4.9,2,6v12c0,1.1,0.9,2,2,2h16c1.1,0,2-0.9,2-2V6C22,4.9,21.1,4,20,4z M7.11,16.89L7.11,16.89
		c-0.43,0.43-1.14,0.39-1.51-0.09C4.53,15.39,4,13.69,4,12c0-1.69,0.53-3.38,1.59-4.8C5.96,6.72,6.67,6.67,7.1,7.1l0,0
		C7.45,7.45,7.49,8,7.2,8.39C6.4,9.46,6,10.73,6,12c0,1.27,0.4,2.53,1.2,3.6C7.5,15.99,7.46,16.54,7.11,16.89z M12,16
		c-2.21,0-4-1.79-4-4s1.79-4,4-4s4,1.79,4,4S14.21,16,12,16z M16.9,16.9L16.9,16.9c-0.35-0.35-0.39-0.9-0.09-1.29
		C17.6,14.54,18,13.27,18,12c0-1.27-0.4-2.53-1.2-3.6c-0.3-0.39-0.26-0.95,0.09-1.3l0,0c0.43-0.43,1.14-0.39,1.51,0.09
		c1.07,1.41,1.6,3.1,1.6,4.8c0,1.69-0.53,3.38-1.59,4.8C18.04,17.28,17.33,17.33,16.9,16.9z M12,10c-1.1,0-2,0.9-2,2s0.9,2,2,2
		s2-0.9,2-2S13.1,10,12,10z"/>
</g>
</svg>
